Newaita-dark/apps/22/nvidia.svg

<?xml version="1.0" encoding="UTF-8"?>
<svg xmlns="http://www.w3.org/2000/svg" xmlns:xlink="http://www.w3.org/1999/xlink" width="22pt" height="22pt" viewBox="0 0 22 22" version="1.1">
<defs>
<linearGradient id="linear0" gradientUnits="userSpaceOnUse" x1="254" y1="233.5" x2="254" y2="254.666672" gradientTransform="matrix(0.0429729,0,0,0.0429729,-0.00000262285,9.239165)">
<stop offset="0" style="stop-color:rgb(0%,0%,0%);stop-opacity:0.27451;"/>
<stop offset="1" style="stop-color:rgb(0%,0%,0%);stop-opacity:0;"/>
</linearGradient>
<radialGradient id="radial0" gradientUnits="userSpaceOnUse" cx="450.908936" cy="189.579361" fx="450.908936" fy="189.579361" r="21.166656" gradientTransform="matrix(0.000000119742,-0.0537161,-0.0966889,-0.0000000698078,36.522014,43.721791)">
<stop offset="0" style="stop-color:rgb(0%,0%,0%);stop-opacity:0.313725;"/>
<stop offset="0.222222" style="stop-color:rgb(0%,0%,0%);stop-opacity:0.27451;"/>
<stop offset="1" style="stop-color:rgb(0%,0%,0%);stop-opacity:0;"/>
</radialGradient>
<radialGradient id="radial1" gradientUnits="userSpaceOnUse" cx="450.908936" cy="189.579361" fx="450.908936" fy="189.579361" r="21.166656" gradientTransform="matrix(-0.000000119742,0.0537161,0.0966889,0.0000000698078,-14.578108,-5.175142)">
<stop offset="0" style="stop-color:rgb(0%,0%,0%);stop-opacity:0.313725;"/>
<stop offset="0.222222" style="stop-color:rgb(0%,0%,0%);stop-opacity:0.27451;"/>
<stop offset="1" style="stop-color:rgb(0%,0%,0%);stop-opacity:0;"/>
</radialGradient>
<radialGradient id="radial2" gradientUnits="userSpaceOnUse" cx="450.908936" cy="189.579361" fx="450.908936" fy="189.579361" r="21.166656" gradientTransform="matrix(-0.000000119742,-0.0537161,0.0966889,-0.0000000698078,-14.578108,43.721791)">
<stop offset="0" style="stop-color:rgb(0%,0%,0%);stop-opacity:0.313725;"/>
<stop offset="0.222222" style="stop-color:rgb(0%,0%,0%);stop-opacity:0.27451;"/>
<stop offset="1" style="stop-color:rgb(0%,0%,0%);stop-opacity:0;"/>
</radialGradient>
<radialGradient id="radial3" gradientUnits="userSpaceOnUse" cx="450.908936" cy="189.579361" fx="450.908936" fy="189.579361" r="21.166656" gradientTransform="matrix(0.000000119742,0.0537161,-0.0966889,0.0000000698078,36.522013,-5.175142)">
<stop offset="0" style="stop-color:rgb(0%,0%,0%);stop-opacity:0.313725;"/>
<stop offset="0.222222" style="stop-color:rgb(0%,0%,0%);stop-opacity:0.27451;"/>
<stop offset="1" style="stop-color:rgb(0%,0%,0%);stop-opacity:0;"/>
</radialGradient>
<linearGradient id="linear1" gradientUnits="userSpaceOnUse" x1="254" y1="233.5" x2="254" y2="-168.666672" gradientTransform="matrix(0.0429729,0,0,0.0429729,0,9.239163)">
<stop offset="0" style="stop-color:rgb(29.803922%,68.627451%,31.372549%);stop-opacity:1;"/>
<stop offset="1" style="stop-color:rgb(40%,73.333333%,41.568627%);stop-opacity:1;"/>
</linearGradient>
<linearGradient id="linear2" gradientUnits="userSpaceOnUse" x1="254" y1="138.25" x2="254" y2="-73.416664" >
<stop offset="0" style="stop-color:rgb(87.843137%,87.843137%,87.843137%);stop-opacity:1;"/>
<stop offset="1" style="stop-color:rgb(93.333333%,93.333333%,93.333333%);stop-opacity:1;"/>
</linearGradient>
</defs>
<g id="surface1">
<path style=" stroke:none;fill-rule:nonzero;fill:url(#linear0);" d="M 3.523438 19.273438 L 18.417969 19.273438 L 18.417969 20.183594 L 3.523438 20.183594 Z M 3.523438 19.273438 "/>
<path style=" stroke:none;fill-rule:nonzero;fill:url(#radial0);" d="M 18.417969 19.273438 L 20.238281 19.273438 L 20.238281 18.363281 L 18.417969 18.363281 Z M 18.417969 19.273438 "/>
<path style=" stroke:none;fill-rule:nonzero;fill:url(#radial1);" d="M 3.523438 19.273438 L 1.707031 19.273438 L 1.707031 20.183594 L 3.523438 20.183594 Z M 3.523438 19.273438 "/>
<path style=" stroke:none;fill-rule:nonzero;fill:url(#radial2);" d="M 3.523438 19.273438 L 1.707031 19.273438 L 1.707031 18.363281 L 3.523438 18.363281 Z M 3.523438 19.273438 "/>
<path style=" stroke:none;fill-rule:nonzero;fill:url(#radial3);" d="M 18.417969 19.273438 L 20.238281 19.273438 L 20.238281 20.183594 L 18.417969 20.183594 Z M 18.417969 19.273438 "/>
<path style=" stroke:none;fill-rule:nonzero;fill:url(#linear1);" d="M 2.5 1.992188 L 19.328125 1.992188 C 19.707031 1.992188 20.011719 2.296875 20.011719 2.671875 L 20.011719 18.589844 C 20.011719 18.96875 19.707031 19.273438 19.328125 19.273438 L 2.5 19.273438 C 2.125 19.273438 1.820312 18.96875 1.820312 18.589844 L 1.820312 2.671875 C 1.820312 2.296875 2.125 1.992188 2.5 1.992188 Z M 2.5 1.992188 "/>
<path style=" stroke:none;fill-rule:nonzero;fill:rgb(0%,0%,0%);fill-opacity:0.196078;" d="M 2.730469 19.273438 C 2.226562 19.273438 1.820312 18.867188 1.820312 18.363281 L 1.820312 18.25 C 1.820312 18.753906 2.226562 19.160156 2.730469 19.160156 L 19.101562 19.160156 C 19.605469 19.160156 20.011719 18.753906 20.011719 18.25 L 20.011719 18.363281 C 20.011719 18.867188 19.605469 19.273438 19.101562 19.273438 Z M 2.730469 19.273438 "/>
<path style=" stroke:none;fill-rule:nonzero;fill:rgb(100%,100%,100%);fill-opacity:0.643137;" d="M 2.730469 1.992188 C 2.226562 1.992188 1.820312 2.398438 1.820312 2.902344 L 1.820312 3.015625 C 1.820312 2.511719 2.226562 2.105469 2.730469 2.105469 L 19.101562 2.105469 C 19.605469 2.105469 20.011719 2.511719 20.011719 3.015625 L 20.011719 2.902344 C 20.011719 2.398438 19.605469 1.992188 19.101562 1.992188 Z M 2.730469 1.992188 "/>
<path style=" stroke:none;fill-rule:nonzero;fill:rgb(12.941177%,12.941177%,12.941177%);fill-opacity:1;" d="M 2.5 1.925781 C 2.089844 1.925781 1.753906 2.261719 1.753906 2.671875 L 1.753906 18.589844 C 1.753906 19.003906 2.089844 19.335938 2.5 19.335938 L 19.328125 19.335938 C 19.742188 19.335938 20.074219 19.003906 20.074219 18.589844 L 20.074219 2.671875 C 20.074219 2.261719 19.742188 1.925781 19.328125 1.925781 Z M 2.5 2.054688 L 19.328125 2.054688 C 19.671875 2.054688 19.945312 2.328125 19.945312 2.671875 L 19.945312 18.589844 C 19.945312 18.933594 19.671875 19.207031 19.328125 19.207031 L 2.5 19.207031 C 2.15625 19.207031 1.882812 18.933594 1.882812 18.589844 L 1.882812 2.671875 C 1.882812 2.328125 2.15625 2.054688 2.5 2.054688 Z M 2.5 2.054688 "/>
<path style="fill-rule:nonzero;fill:url(#linear2);stroke-width:3;stroke-linecap:butt;stroke-linejoin:miter;stroke:rgb(12.941177%,12.941177%,12.941177%);stroke-opacity:1;stroke-miterlimit:4;" d="M 127.533276 17.159648 C 127.533276 17.159648 156.076005 -25.290844 212.979661 -29.654063 L 212.979661 -45.016233 C 149.894777 -39.92581 95.26363 13.887233 95.26363 13.887233 C 95.26363 13.887233 126.16977 104.06044 212.979661 112.332378 L 212.979661 95.970304 C 149.349374 87.880167 127.533276 17.159648 127.533276 17.159648 Z M 212.979661 63.427957 L 212.979661 78.426525 C 164.893344 69.790986 151.530984 19.341258 151.530984 19.341258 C 151.530984 19.341258 174.619688 -6.474459 212.979661 -10.655878 L 212.979661 5.797097 C 192.79977 3.342786 177.073999 22.340971 177.073999 22.340971 C 177.073999 22.340971 185.891339 54.247015 212.979661 63.427957 M 212.979661 -73.377161 L 212.979661 -45.016233 C 214.88857 -45.198033 216.706578 -45.288934 218.615487 -45.379834 C 290.335911 -47.834145 337.058722 13.978134 337.058722 13.978134 C 337.058722 13.978134 283.427479 79.69913 227.432827 79.69913 C 222.342404 79.69913 217.524682 79.244628 212.979661 78.426525 L 212.979661 95.970304 C 216.888379 96.515706 220.887997 96.788408 225.069416 96.788408 C 277.064451 96.788408 314.788121 69.972786 351.148285 38.248543 C 357.238613 43.157165 381.963524 55.065119 387.053947 60.246443 C 352.420891 89.425474 271.610426 113.059581 225.796619 113.059581 C 221.4334 113.059581 217.16108 112.78688 212.979661 112.332378 L 212.979661 137.057289 L 410.869855 137.057289 L 410.869855 -73.377161 Z M 212.979661 -10.655878 L 212.979661 -29.654063 C 214.88857 -29.744964 216.706578 -29.926765 218.615487 -29.926765 C 270.15602 -31.562972 304.061873 14.705337 304.061873 14.705337 C 304.061873 14.705337 267.429007 65.882268 228.25093 65.882268 C 222.615105 65.882268 217.524682 64.973264 212.979661 63.427957 L 212.979661 5.797097 C 233.068652 8.251408 237.159171 17.159648 249.248925 37.52134 L 276.064546 14.705337 C 276.064546 14.705337 256.430058 -11.20128 223.433209 -11.20128 C 219.797192 -11.20128 216.342977 -11.019479 212.979661 -10.655878 " transform="matrix(0.0429729,0,0,0.0429729,0,9.239163)"/>
</g>
</svg>

<svg xmlns="http://www.w3.org/2000/svg" width="22pt" height="22pt" viewBox="0 0 22 22"><defs><linearGradient id="a" gradientUnits="userSpaceOnUse" x1="254" y1="233.5" x2="254" y2="254.667" gradientTransform="matrix(.04297 0 0 .04297 0 9.24)"><stop offset="0" stop-opacity=".275"/><stop offset="1" stop-opacity="0"/></linearGradient><radialGradient id="b" gradientUnits="userSpaceOnUse" cx="450.909" cy="189.579" fx="450.909" fy="189.579" r="21.167" gradientTransform="matrix(0 -.05372 -.09669 0 36.522 43.722)"><stop offset="0" stop-opacity=".314"/><stop offset=".222" stop-opacity=".275"/><stop offset="1" stop-opacity="0"/></radialGradient><radialGradient id="c" gradientUnits="userSpaceOnUse" cx="450.909" cy="189.579" fx="450.909" fy="189.579" r="21.167" gradientTransform="matrix(0 .05372 .09669 0 -14.578 -5.175)"><stop offset="0" stop-opacity=".314"/><stop offset=".222" stop-opacity=".275"/><stop offset="1" stop-opacity="0"/></radialGradient><radialGradient id="d" gradientUnits="userSpaceOnUse" cx="450.909" cy="189.579" fx="450.909" fy="189.579" r="21.167" gradientTransform="matrix(0 -.05372 .09669 0 -14.578 43.722)"><stop offset="0" stop-opacity=".314"/><stop offset=".222" stop-opacity=".275"/><stop offset="1" stop-opacity="0"/></radialGradient><radialGradient id="e" gradientUnits="userSpaceOnUse" cx="450.909" cy="189.579" fx="450.909" fy="189.579" r="21.167" gradientTransform="matrix(0 .05372 -.09669 0 36.522 -5.175)"><stop offset="0" stop-opacity=".314"/><stop offset=".222" stop-opacity=".275"/><stop offset="1" stop-opacity="0"/></radialGradient><linearGradient id="f" gradientUnits="userSpaceOnUse" x1="254" y1="233.5" x2="254" y2="-168.667" gradientTransform="matrix(.04297 0 0 .04297 0 9.24)"><stop offset="0" stop-color="#4caf50"/><stop offset="1" stop-color="#66bb6a"/></linearGradient><linearGradient id="g" gradientUnits="userSpaceOnUse" x1="254" y1="138.25" x2="254" y2="-73.417"><stop offset="0" stop-color="#e0e0e0"/><stop offset="1" stop-color="#eee"/></linearGradient></defs><path d="M3.523 19.273h14.895v.91H3.523zm0 0" fill="url(#a)"/><path d="M18.418 19.273h1.82v-.91h-1.82zm0 0" fill="url(#b)"/><path d="M3.523 19.273H1.707v.91h1.816zm0 0" fill="url(#c)"/><path d="M3.523 19.273H1.707v-.91h1.816zm0 0" fill="url(#d)"/><path d="M18.418 19.273h1.82v.91h-1.82zm0 0" fill="url(#e)"/><path d="M2.5 1.992h16.828c.379 0 .684.305.684.68V18.59a.682.682 0 0 1-.684.683H2.5a.681.681 0 0 1-.68-.683V2.672a.68.68 0 0 1 .68-.68zm0 0" fill="url(#f)"/><path d="M2.73 19.273a.909.909 0 0 1-.91-.91v-.113c0 .504.407.91.91.91h16.372c.503 0 .91-.406.91-.91v.113c0 .504-.407.91-.91.91zm0 0" fill-opacity=".196"/><path d="M2.73 1.992a.909.909 0 0 0-.91.91v.114c0-.504.407-.91.91-.91h16.372c.503 0 .91.406.91.91v-.114a.909.909 0 0 0-.91-.91zm0 0" fill="#fff" fill-opacity=".643"/><path d="M2.5 1.926a.749.749 0 0 0-.746.746V18.59c0 .414.336.746.746.746h16.828a.744.744 0 0 0 .746-.746V2.672a.746.746 0 0 0-.746-.746zm0 .129h16.828c.344 0 .617.273.617.617V18.59a.614.614 0 0 1-.617.617H2.5a.614.614 0 0 1-.617-.617V2.672c0-.344.273-.617.617-.617zm0 0" fill="#212121"/><path d="M127.533 17.16s28.543-42.45 85.447-46.814v-15.362c-63.085 5.09-117.716 58.903-117.716 58.903s30.906 90.173 117.716 98.445V95.97c-63.63-8.09-85.447-78.81-85.447-78.81zm85.447 46.268v14.999C164.893 69.79 151.53 19.34 151.53 19.34S174.62-6.474 212.98-10.656V5.797c-20.18-2.454-35.906 16.544-35.906 16.544s8.817 31.906 35.906 41.087m0-136.805v28.36c1.909-.181 3.727-.272 5.635-.363 71.72-2.454 118.444 59.358 118.444 59.358S283.427 79.7 227.433 79.7c-5.09 0-9.908-.454-14.453-1.272V95.97c3.908.546 7.908.818 12.09.818 51.994 0 89.718-26.815 126.078-58.54 6.09 4.91 30.816 16.817 35.906 21.998-34.633 29.18-115.444 52.814-161.257 52.814-4.364 0-8.636-.273-12.817-.728v24.725h197.89V-73.377zm0 62.721v-18.998c1.909-.091 3.727-.273 5.635-.273 51.541-1.636 85.447 44.632 85.447 44.632s-36.633 51.177-75.811 51.177c-5.636 0-10.726-.909-15.271-2.454V5.798c20.089 2.453 24.18 11.362 36.269 31.723l26.816-22.816S256.43-11.2 223.433-11.2c-3.636 0-7.09.182-10.453.545" transform="matrix(.04297 0 0 .04297 0 9.24)" fill="url(#g)" stroke-width="3" stroke="#212121"/></svg>
